resources/svg/major-attachment.svg

<svg xmlns="http://www.w3.org/2000/svg" viewBox="0 0 20 20" fill="currentColor"><path d="M5.243 20a5.228 5.228 0 0 1-3.707-1.533 5.213 5.213 0 0 1-1.536-3.708c0-1.402.546-2.719 1.536-3.708l9.515-9.519a5.25 5.25 0 0 1 8.553 1.7 5.21 5.21 0 0 1 .396 2.008 5.208 5.208 0 0 1-1.535 3.708l-4.258 4.26a3.124 3.124 0 0 1-5.092-1.012 3.098 3.098 0 0 1-.236-1.196c0-.835.324-1.619.914-2.208l4.5-4.501a1 1 0 1 1 1.414 1.414l-4.5 4.501a1.112 1.112 0 0 0-.328.794 1.114 1.114 0 0 0 1.121 1.12c.297 0 .582-.118.793-.327l4.258-4.26a3.223 3.223 0 0 0 .949-2.293c0-.866-.337-1.681-.949-2.293a3.248 3.248 0 0 0-4.586 0l-9.515 9.518a3.224 3.224 0 0 0-.95 2.295c0 .866.338 1.68.95 2.293a3.248 3.248 0 0 0 4.586 0l1.757-1.758a1 1 0 1 1 1.414 1.414l-1.757 1.758a5.236 5.236 0 0 1-3.707 1.533z"/></svg>

<svg xmlns="http://www.w3.org/2000/svg" viewBox="0 0 20 20" fill="currentColor"><path d="M5.243 20a5.228 5.228 0 0 1-3.707-1.533A5.213 5.213 0 0 1 0 14.759c0-1.402.546-2.719 1.536-3.708l9.515-9.519a5.25 5.25 0 0 1 8.553 1.7A5.21 5.21 0 0 1 20 5.24a5.208 5.208 0 0 1-1.535 3.708l-4.258 4.26a3.124 3.124 0 0 1-5.092-1.012A3.098 3.098 0 0 1 8.879 11c0-.835.324-1.619.914-2.208l4.5-4.501a1 1 0 1 1 1.414 1.414l-4.5 4.501a1.112 1.112 0 0 0-.328.794A1.114 1.114 0 0 0 12 12.12c.297 0 .582-.118.793-.327l4.258-4.26A3.223 3.223 0 0 0 18 5.24c0-.866-.337-1.681-.949-2.293a3.248 3.248 0 0 0-4.586 0L2.95 12.465A3.224 3.224 0 0 0 2 14.76c0 .866.338 1.68.95 2.293a3.248 3.248 0 0 0 4.586 0l1.757-1.758a1 1 0 1 1 1.414 1.414L8.95 18.467A5.236 5.236 0 0 1 5.243 20z"/></svg>
